Sweet-Rainbow/icons/ulauncher.svg

<?xml version="1.0" encoding="UTF-8" standalone="no"?>
<!-- Generator: Gravit.io -->

<svg
   xmlns:dc="http://purl.org/dc/elements/1.1/"
   xmlns:cc="http://creativecommons.org/ns#"
   xmlns:rdf="http://www.w3.org/1999/02/22-rdf-syntax-ns#"
   xmlns:svg="http://www.w3.org/2000/svg"
   xmlns="http://www.w3.org/2000/svg"
   xmlns:sodipodi="http://sodipodi.sourceforge.net/DTD/sodipodi-0.dtd"
   xmlns:inkscape="http://www.inkscape.org/namespaces/inkscape"
   style="isolation:isolate"
   viewBox="0 0 36 36"
   width="48"
   height="48"
   version="1.1"
   id="svg11"
   sodipodi:docname="ulauncher.svg"
   inkscape:version="0.92.4 (5da689c313, 2019-01-14)">
  <metadata
     id="metadata17">
    <rdf:RDF>
      <cc:Work
         rdf:about="">
        <dc:format>image/svg+xml</dc:format>
        <dc:type
           rdf:resource="http://purl.org/dc/dcmitype/StillImage" />
        <dc:title></dc:title>
      </cc:Work>
    </rdf:RDF>
  </metadata>
  <defs
     id="defs15" />
  <sodipodi:namedview
     pagecolor="#ffffff"
     bordercolor="#666666"
     borderopacity="1"
     objecttolerance="10"
     gridtolerance="10"
     guidetolerance="10"
     inkscape:pageopacity="0"
     inkscape:pageshadow="2"
     inkscape:window-width="640"
     inkscape:window-height="480"
     id="namedview13"
     showgrid="false"
     inkscape:zoom="29.365243"
     inkscape:cx="25.325443"
     inkscape:cy="32"
     inkscape:current-layer="svg11"
     units="px" />
  <linearGradient
     id="_lgradient_58"
     x1="0"
     y1="0.5"
     x2="1"
     y2="0.5"
     gradientTransform="matrix(36,0,0,40,6,4)"
     gradientUnits="userSpaceOnUse">
    <stop
       offset="0%"
       stop-opacity="1"
       style="stop-color:rgb(84,51,255)"
       id="stop2" />
    <stop
       offset="51.73913043478261%"
       stop-opacity="1"
       style="stop-color:rgb(32,189,255)"
       id="stop4" />
    <stop
       offset="98.26086956521739%"
       stop-opacity="1"
       style="stop-color:rgb(165,254,203)"
       id="stop6" />
  </linearGradient>
  <g
     id="g825"
     transform="matrix(0.9,0,0,0.9,-3.6,-3.6)">
    <path
       id="path9"
       d="M 15.128,42.339 14.855,42.256 C 13.049,41.419 11.523,40.34 10.285,39.01 8.824,37.443 7.746,35.577 7.051,33.408 6.35,31.24 6,28.842 6,26.225 v -6.094 l 10,-4.445 v 0 9.847 V 28 c 0,4.432 3.568,8 8,8 1.867,0 3.579,-0.635 4.931,-1.707 0.005,0.008 0.005,0.008 0,-10e-4 0.284,-0.21 0.548,-0.447 0.795,-0.7 -0.058,0.06 -0.123,0.112 -0.183,0.17 C 31.055,32.31 32,30.272 32,28 V 11 c 0,-0.013 -0.002,-0.026 -0.002,-0.039 v -0.932 0 c 10e-4,10e-4 0.003,10e-4 0.004,0.002 V 8.271 L 42,4 v 0 21.746 c 0,0.03 -10e-4,0.06 -0.004,0.089 v 0.386 c 0,2.622 -0.359,5.029 -1.078,7.216 -0.719,2.188 -1.822,4.067 -3.301,5.629 -1.485,1.568 -3.364,2.781 -5.652,3.637 -2.287,0.863 -4.994,1.285 -8.131,1.285 L 23.84,44 c -3.086,0 -5.755,-0.442 -8,-1.322 -0.26,-0.102 -0.493,-0.217 -0.712,-0.339 z m 14.354,-8.163 v 0 h 0.004 v 0 l 0.241,-0.584 c 0,0 0,0 0,0 l -0.241,0.584 v 0 z m -0.003,-0.354 c -0.176,0.165 -0.358,0.322 -0.548,0.471 -0.02,0.016 -0.04,0.031 -0.06,0.047 0.02,-0.016 0.04,-0.031 0.06,-0.048 0.19,-0.148 0.372,-0.305 0.548,-0.47 z"
       inkscape:connector-curvature="0"
       style="fill:url(#_lgradient_58);fill-rule:evenodd" />
  </g>
</svg>

<?xml version="1.0" encoding="UTF-8" standalone="no"?><!-- Generator: Gravit.io --><svg xmlns="http://www.w3.org/2000/svg" xmlns:xlink="http://www.w3.org/1999/xlink" style="isolation:isolate" viewBox="0 0 48 48" width="48pt" height="48pt"><linearGradient id="_lgradient_58" x1="0" y1="0.5" x2="1" y2="0.5" gradientTransform="matrix(36,0,0,40,6,4)" gradientUnits="userSpaceOnUse"><stop offset="0%" stop-opacity="1" style="stop-color:rgb(84,51,255)"/><stop offset="51.73913043478261%" stop-opacity="1" style="stop-color:rgb(32,189,255)"/><stop offset="98.26086956521739%" stop-opacity="1" style="stop-color:rgb(165,254,203)"/></linearGradient><path d=" M 15.128 42.339 L 14.855 42.256 C 13.049 41.419 11.523 40.34 10.285 39.01 C 8.824 37.443 7.746 35.577 7.051 33.408 C 6.35 31.24 6 28.842 6 26.225 L 6 20.131 L 16 15.686 L 16 15.686 L 16 25.533 L 16 28 C 16 32.432 19.568 36 24 36 C 25.867 36 27.579 35.365 28.931 34.293 C 28.936 34.301 28.936 34.301 28.931 34.292 C 29.215 34.082 29.479 33.845 29.726 33.592 C 29.668 33.652 29.603 33.704 29.543 33.762 C 31.055 32.31 32 30.272 32 28 L 32 11 C 32 10.987 31.998 10.974 31.998 10.961 L 31.998 10.029 L 31.998 10.029 C 31.999 10.03 32.001 10.03 32.002 10.031 L 32.002 8.271 L 42 4 L 42 4 L 42 25.746 C 42 25.776 41.999 25.806 41.996 25.835 L 41.996 26.221 C 41.996 28.843 41.637 31.25 40.918 33.437 C 40.199 35.625 39.096 37.504 37.617 39.066 C 36.132 40.634 34.253 41.847 31.965 42.703 C 29.678 43.566 26.971 43.988 23.834 43.988 L 23.84 44 C 20.754 44 18.085 43.558 15.84 42.678 C 15.58 42.576 15.347 42.461 15.128 42.339 Z  M 29.482 34.176 L 29.482 34.176 L 29.486 34.176 L 29.486 34.176 L 29.727 33.592 C 29.727 33.592 29.727 33.592 29.727 33.592 L 29.486 34.176 L 29.486 34.176 L 29.482 34.176 L 29.482 34.176 Z  M 29.479 33.822 C 29.303 33.987 29.121 34.144 28.931 34.293 C 28.911 34.309 28.891 34.324 28.871 34.34 C 28.891 34.324 28.911 34.309 28.931 34.292 C 29.121 34.144 29.303 33.987 29.479 33.822 L 29.479 33.822 Z " fill-rule="evenodd" fill="url(#_lgradient_58)"/></svg>
